X: 18316
T: Humours Of Tullyknockbrine, The
R: reel
M: 4/4
K: Gmajor
G2 dG BdGB|dGBd cedB|G2 dG Bcde|dBcA (3BcB EF|
GBdG BdGB|dGBd cedB|GBdG Bcde|dBcA BGGB||
egfg egfe|fd d/d/d Adfd|egfg efga|bgaf gfed|
egfg efge|defg afdf|geaf gedB|cAdc BGAF||
G,2 DG, B,DG,B,|DG,B,D CA,DB,|G,2 DG, B,CDE|DB,CA, B,/C/B, A,B,|
G,B,DG, B,DG,B,|DG,B,D CEDB,|G,B,DG, B,CDE|DB,CA, B,G,G,A,||
B,EED B,E^CE|D2 FD A,DFD|EFGF EFGA|BGAF GFED|
EBGE B,E^CE|DEFG ABAF|GABc dedB|cAdc BGAF||

